public/avatar/shoe/63.svg

<svg xmlns:xlink="http://www.w3.org/1999/xlink" height="38.3" width="36.05" xmlns="http://www.w3.org/2000/svg"><use height="17.05" transform="translate(11.7 10.45)" width="20.9" xlink:href="#a"/><defs><g id="a"><path d="m4.05-2.1 1.5.8 1.35.7.25.5.05.3q.2.9.65 1.65.95 2.95.2 4.7-.55.95-1.6 1.4Q2.8 9.6-1.8 10.35l-6 .15q-2.85-.8-3.55-1.8l-.35-.85q0-1.7 1.5-3.25l1.8-1.85 1.75-1.35 1.3-1.2 2-1.85Q-2-2.6-.3-2.6l4.35.5" fill="#626262" fill-rule="evenodd" transform="translate(12.1 4.4)"/><path d="m4.1-2.6 1.25.85L7.05-.1q.35 3.55-2.8 5.55Q5.7 3.2 5.55.75 2.6 6.15-.8 6.9 2.05 5.1 2.65 1-.7 4.55-6.3 3.3q-1.2-.4-1.35-1.2Q-6.6.6-4.9-.55l.75-.8 1.05-.45q.75-.3 2.2-1.05l5 .25" fill="#454545" fill-rule="evenodd" transform="translate(12.1 4.4)"/><path d="M.5-3.8q2.95-.75 3.65 1.7Q4.5-.2-.3.15-5.15.5-4.1-1.3q1.95-1.5 3.55-2.15L.5-3.8M8.05 6.55q.95 2.1-1 3l-3.45 1.3-6.7 1.55q-1.7.55-3.3 0l-3.35-.95q-1.75-.7-1.6-2.75.7 1 3.55 1.8l6-.15q4.6-.75 8.25-2.4 1.05-.45 1.6-1.4" fill-rule="evenodd" transform="translate(12.1 4.4)"/><path d="M6.4 9.25 4.65 10.8q-.8.5-.8 2.65 0 .95.45 1.45" fill="none" stroke="#454545" stroke-linecap="round" stroke-linejoin="round" stroke-width=".8"/><path d="m12.6.6-1.05.35Q9.95 1.6 8 3.1l-.8.75Q5.5 5 4.45 6.5 3.6 7.1 1.9 9 .4 10.55.4 12.25l.35.85q.7 1 3.55 1.8l6-.15q4.6-.75 8.25-2.4 1.05-.45 1.6-1.4.75-1.75-.2-4.7l-.8-1.95q-1.3-1.85-2.9-2-.7-2.45-3.65-1.7Z" fill="none" stroke="#000" stroke-linecap="round" stroke-linejoin="round" stroke-width=".8"/></g></defs></svg>

<?xml version="1.0" encoding="UTF-8" standalone="no"?>
<svg xmlns:xlink="http://www.w3.org/1999/xlink" height="38.3px" width="36.05px" xmlns="http://www.w3.org/2000/svg">
  <g transform="matrix(1.0, 0.0, 0.0, 1.0, 23.8, 14.85)">
    <use height="17.05" transform="matrix(1.0, 0.0, 0.0, 1.0, -12.1, -4.4)" width="20.9" xlink:href="#shape0"/>
  </g>
  <defs>
    <g id="shape0" transform="matrix(1.0, 0.0, 0.0, 1.0, 12.1, 4.4)">
      <path d="M4.05 -2.1 L5.55 -1.3 6.9 -0.6 7.15 -0.1 7.2 0.2 Q7.4 1.1 7.85 1.85 8.8 4.8 8.05 6.55 7.5 7.5 6.45 7.95 2.8 9.6 -1.8 10.35 L-7.8 10.5 Q-10.65 9.7 -11.35 8.7 L-11.7 7.85 Q-11.7 6.15 -10.2 4.6 L-8.4 2.75 -6.65 1.4 -5.35 0.2 -3.35 -1.65 Q-2.0 -2.6 -0.3 -2.6 L4.05 -2.1" fill="#626262" fill-rule="evenodd" stroke="none"/>
      <path d="M4.1 -2.6 L5.35 -1.75 7.05 -0.1 Q7.4 3.45 4.25 5.45 5.7 3.2 5.55 0.75 2.6 6.15 -0.8 6.9 2.05 5.1 2.65 1.0 -0.7 4.55 -6.3 3.3 -7.5 2.9 -7.65 2.1 -6.6 0.6 -4.9 -0.55 L-4.15 -1.35 -3.1 -1.8 Q-2.35 -2.1 -0.9 -2.85 L4.1 -2.6" fill="#454545" fill-rule="evenodd" stroke="none"/>
      <path d="M0.5 -3.8 Q3.45 -4.55 4.15 -2.1 4.5 -0.2 -0.3 0.15 -5.15 0.5 -4.1 -1.3 -2.15 -2.8 -0.55 -3.45 L0.5 -3.8" fill="#000000" fill-rule="evenodd" stroke="none"/>
      <path d="M8.05 6.55 Q9.0 8.65 7.05 9.55 L3.6 10.85 -3.1 12.4 Q-4.8 12.95 -6.4 12.4 L-9.75 11.45 Q-11.5 10.75 -11.35 8.7 -10.65 9.7 -7.8 10.5 L-1.8 10.35 Q2.8 9.6 6.45 7.95 7.5 7.5 8.05 6.55" fill="#000000" fill-rule="evenodd" stroke="none"/>
      <path d="M-5.7 4.85 L-7.45 6.4 Q-8.25 6.9 -8.25 9.05 -8.25 10.0 -7.8 10.5" fill="none" stroke="#454545" stroke-linecap="round" stroke-linejoin="round" stroke-width="0.8"/>
      <path d="M0.5 -3.8 L-0.55 -3.45 Q-2.15 -2.8 -4.1 -1.3 L-4.9 -0.55 Q-6.6 0.6 -7.65 2.1 -8.5 2.7 -10.2 4.6 -11.7 6.15 -11.7 7.85 L-11.35 8.7 Q-10.65 9.7 -7.8 10.5 L-1.8 10.35 Q2.8 9.6 6.45 7.95 7.5 7.5 8.05 6.55 8.8 4.8 7.85 1.85 L7.05 -0.1 Q5.75 -1.95 4.15 -2.1 3.45 -4.55 0.5 -3.8 Z" fill="none" stroke="#000000" stroke-linecap="round" stroke-linejoin="round" stroke-width="0.8"/>
    </g>
  </defs>
</svg>
